; generated by PrusaSlicer 2.4.2 on 2022-10-14 at 23:19:25 UTC


;
;

;
;
; 

; external perimeters extrusion width = 0.60mm
; perimeters extrusion width = 0.50mm
; infill extrusion width = 0.50mm
; solid infill extrusion width = 0.50mm
; top infill extrusion width = 0.45mm
; first layer extrusion width = 0.42mm

M73 P0 R74
M73 Q0 S74
M201 X1000 Y1000 Z200 E5000 ; sets maximum accelerations, mm/sec^2
M203 X200 Y200 Z12 E120 ; sets maximum feedrates, mm / sec
M204 P1250 R1250 T1250 ; sets acceleration (P, T) and retract acceleration (R), mm/sec^2
M205 X8.00 Y8.00 Z0.40 E4.50 ; sets the jerk limits, mm/sec
M205 S0 T0 ; sets the minimum extruding and travel feed rate, mm/sec
M107
;TYPE:Custom
M862.3 P "MK3S" ; printer model check
M862.1 P0.4 ; nozzle diameter check
M115 U3.10.0 ; tell printer latest fw version
G90 ; use absolute coordinates
M83 ; extruder relative mode
M104 S215 ; set extruder temp
M140 S60 ; set bed temp
M190 S60 ; wait for bed temp
M109 S215 ; wait for extruder temp
G28 W ; home all without mesh bed level
G80 ; mesh bed leveling
G1 Y-3.0 F1000.0 ; go outside print area
G92 E0.0
G1 X60.0 E9.0 F1000.0 ; intro line
G1 X100.0 E12.5 F1000.0 ; intro line
G92 E0.0
M221 S95

; Don't change E values below. Excessive value can damage the printer.

M907 E538 ; set extruder motor current
G21 ; set units to millimeters
G90 ; use absolute coordinates
M83 ; use relative distances for extrusion
M900 K0.05 ; Filament gcode LA 1.5
M900 K30 ; Filament gcode LA 1.0
M107
;LAYER_CHANGE
;Z:0.2
;HEIGHT:0.2
;BEFORE_LAYER_CHANGE
G92 E0.0
;0.2


G1 E-.8 F2100
G1 Z.4 F10800
;AFTER_LAYER_CHANGE
;0.2
G1 X36.633 Y26.279
G1 Z.2
G1 E.8 F2100
M204 S1000
;TYPE:Skirt/Brim
;WIDTH:0.42
G1 F1200
G1 X38.051 Y24.467 E.07214
G1 X39.556 Y22.727 E.07214
G1 X41.145 Y21.062 E.07214
G1 X42.813 Y19.478 E.07213
G1 X44.557 Y17.977 E.07215
G1 X46.363 Y16.571 E.07176
G1 X48.154 Y15.309 E.06869
G1 X50.101 Y14.073 E.07231
G1 X52.097 Y12.939 E.07197
G1 X54.155 Y11.899 E.07231
G1 X56.257 Y10.964 E.07214
G1 X58.403 Y10.133 E.07214
G1 X60.587 Y9.409 E.07214
G1 X62.905 Y8.767 E.07543
G1 X65.162 Y8.263 E.07251
G1 X67.43 Y7.872 E.07214
G1 X69.708 Y7.594 E.07196
G1 X71.891 Y7.433 E.06865
G1 X74.25 Y7.373 E.07398
G1 X175.808 Y7.374 E3.18429
G1 X178.108 Y7.433 E.07214
M73 P0 R73
G1 X180.403 Y7.605 E.07214
G1 X182.571 Y7.872 E.06849
G1 X184.838 Y8.263 E.07214
G1 X187.197 Y8.793 E.07579
G1 X189.413 Y9.409 E.07214
G1 X191.597 Y10.134 E.07214
G1 X193.743 Y10.964 E.07214
G1 X195.845 Y11.899 E.07214
G1 X197.899 Y12.936 E.07214
G1 X199.799 Y14.013 E.06849
G1 X201.913 Y15.356 E.07853
G1 X203.721 Y16.633 E.0694
G1 X205.533 Y18.051 E.07214
G1 X207.273 Y19.556 E.07214
G1 X208.938 Y21.145 E.07214
G1 X210.444 Y22.727 E.06848
G1 X211.949 Y24.467 E.07214
G1 X213.429 Y26.363 E.07542
G1 X214.691 Y28.154 E.06869
G1 X215.987 Y30.201 E.07596
G1 X217.116 Y32.199 E.07197
G1 X218.101 Y34.155 E.06866
G1 X219.036 Y36.257 E.07214
G1 X219.854 Y38.371 E.07107
G1 X220.625 Y40.698 E.07687
G1 X221.233 Y42.905 E.07177
G1 X221.714 Y45.048 E.06886
G1 X222.11 Y47.314 E.07213
G1 X222.394 Y49.592 E.07198
G1 X222.567 Y51.891 E.0723
G1 X222.627 Y54.25 E.07398
G1 X222.627 Y155.75 E3.18246
G1 X222.567 Y158.108 E.07397
G1 X222.406 Y160.287 E.06848
G1 X222.13 Y162.552 E.07156
G1 X221.737 Y164.838 E.07272
G1 X221.207 Y167.197 E.07579
G1 X220.625 Y169.302 E.06849
G1 X219.906 Y171.487 E.07214
G1 X219.08 Y173.635 E.07214
G1 X218.101 Y175.845 E.0758
G1 X217.064 Y177.899 E.07214
G1 X215.987 Y179.799 E.06849
G1 X214.7 Y181.832 E.07542
G1 X213.367 Y183.721 E.07251
G1 X211.949 Y185.533 E.07214
G1 X210.522 Y187.187 E.06849
G1 X208.938 Y188.855 E.07214
G1 X207.273 Y190.444 E.07214
G1 X205.533 Y191.949 E.07214
G1 X203.637 Y193.429 E.07542
G1 X201.755 Y194.752 E.07214
G1 X199.799 Y195.987 E.07251
G1 X197.801 Y197.116 E.07197
G1 X195.739 Y198.151 E.07231
G1 X193.743 Y199.036 E.06848
G1 X191.629 Y199.854 E.07107
G1 X189.413 Y200.591 E.07321
G1 X187.095 Y201.233 E.07543
G1 X184.952 Y201.714 E.06886
G1 X182.686 Y202.11 E.07213
G1 X180.292 Y202.406 E.07562
G1 X177.992 Y202.573 E.07232
G1 X175.75 Y202.627 E.07031
G1 X74.25 Y202.627 E3.18246
G1 X71.892 Y202.567 E.07397
G1 X69.713 Y202.406 E.06848
G1 X67.43 Y202.128 E.07214
G1 X65.162 Y201.737 E.07214
G1 X62.803 Y201.207 E.0758
G1 X60.698 Y200.625 E.06849
G1 X58.513 Y199.906 E.07214
G1 X56.257 Y199.036 E.0758
G1 X54.155 Y198.101 E.07214
G1 X52.204 Y197.119 E.06848
G1 X50.101 Y195.927 E.0758
G1 X48.158 Y194.694 E.07214
G1 X46.279 Y193.367 E.07214
G1 X44.467 Y191.949 E.07214
G1 X42.727 Y190.444 E.07214
G1 X41.145 Y188.938 E.06848
G1 X39.556 Y187.273 E.07214
G1 X38.051 Y185.533 E.07214
G1 X36.571 Y183.637 E.07542
G1 X35.248 Y181.755 E.07214
G1 X34.013 Y179.799 E.07251
G1 X32.884 Y177.801 E.07197
G1 X31.849 Y175.739 E.07231
G1 X30.92 Y173.635 E.07214
G1 X30.096 Y171.493 E.07194
G1 X29.411 Y169.418 E.06852
G1 X28.767 Y167.095 E.07559
G1 X28.286 Y164.952 E.06886
G1 X27.89 Y162.686 E.07213
G1 X27.594 Y160.292 E.07562
G1 X27.427 Y157.992 E.07232
G1 X27.373 Y155.75 E.07031
G1 X27.373 Y54.25 E3.18246
G1 X27.433 Y51.892 E.07397
G1 X27.594 Y49.713 E.06848
G1 X27.87 Y47.448 E.07156
G1 X28.263 Y45.162 E.07272
G1 X28.793 Y42.803 E.07579
G1 X29.375 Y40.698 E.06849
G1 X30.094 Y38.513 E.07214
G1 X30.92 Y36.365 E.07214
G1 X31.899 Y34.155 E.0758
G1 X32.936 Y32.101 E.07214
G1 X34.013 Y30.201 E.06849
G1 X35.3 Y28.168 E.07542
G1 X36.599 Y26.328 E.07063
; printing object BabyApe3_PropGuard-BabyApe_Frame id:0 copy 0
;WIPE_START
G1 F8640
G1 X38.051 Y24.467 E-.54512
G1 X38.66 Y23.763 E-.21488
;WIPE_END
G1 E-.04 F2100
G1 Z.6 F10800
G1 X140.603 Y103.579
G1 Z.2
G1 E.8 F2100
;TYPE:Perimeter
G1 F1200
G1 X140.955 Y103.102 E.01858
G1 X141.371 Y102.735 E.01742
G1 X141.852 Y102.457 E.01742
G1 X142.373 Y102.282 E.01722
G1 X142.809 Y102.217 E.01383
G1 X143.347 Y102.232 E.01688
G1 X143.889 Y102.355 E.01741
G1 X144.395 Y102.584 E.01741
G1 X144.846 Y102.908 E.01742
G1 X145.224 Y103.316 E.01743
G1 X145.514 Y103.79 E.01742
G1 X145.704 Y104.312 E.01742
G1 X145.787 Y104.861 E.01741
G1 X145.759 Y105.416 E.01741
G1 X145.627 Y105.938 E.01688
G1 X145.447 Y106.34 E.01382
G1 X145.137 Y106.794 E.01722
G1 X144.739 Y107.182 E.01742
G1 X144.273 Y107.483 E.01741
G1 X143.755 Y107.686 E.01743
G1 X143.209 Y107.782 E.01741
G1 X142.653 Y107.768 E.01743
G1 X142.111 Y107.645 E.01742
G1 X141.605 Y107.416 E.01742
G1 X141.154 Y107.092 E.01742
G1 X140.776 Y106.684 E.01742
G1 X140.486 Y106.21 E.01742
G1 X140.296 Y105.689 E.01741
G1 X140.214 Y105.149 E.01712
G1 X140.241 Y104.585 E.0177
G1 X140.378 Y104.046 E.01744
G1 X140.577 Y103.633 E.01436
G1 X140.943 Y103.743 F10800
;TYPE:External perimeter
G1 F1200
G1 X141.233 Y103.36 E.01506
G1 X141.593 Y103.042 E.01505
G1 X142.008 Y102.802 E.01505
G1 X142.461 Y102.65 E.01498
G1 X142.832 Y102.595 E.01175
G1 X143.3 Y102.608 E.01468
G1 X143.768 Y102.715 E.01506
G1 X144.206 Y102.912 E.01505
G1 X144.595 Y103.192 E.01506
G1 X144.922 Y103.544 E.01506
G1 X145.172 Y103.954 E.01505
G1 X145.337 Y104.405 E.01506
G1 X145.408 Y104.88 E.01505
G1 X145.384 Y105.36 E.01506
G1 X145.269 Y105.813 E.01468
G1 X145.116 Y106.155 E.01174
G1 X144.847 Y106.55 E.01499
M73 Q1 S74
G1 X144.503 Y106.885 E.01505
G1 X144.1 Y107.146 E.01505
G1 X143.653 Y107.321 E.01506
G1 X143.18 Y107.404 E.01505
M73 P1 R73
G1 X142.7 Y107.392 E.01506
G1 X142.232 Y107.285 E.01505
G1 X141.794 Y107.088 E.01505
G1 X141.404 Y106.808 E.01506
G1 X141.078 Y106.456 E.01505
G1 X140.828 Y106.046 E.01505
G1 X140.663 Y105.595 E.01505
G1 X140.593 Y105.129 E.01477
M73 Q1 S73
G1 X140.616 Y104.641 E.01533
G1 X140.734 Y104.175 E.01506
G1 X140.917 Y103.797 E.01317
G1 X140.751 Y103.392 F10800
;WIPE_START
G1 F8640
G1 X141.233 Y103.36 E-.12449
G1 X141.593 Y103.042 E-.11086
G1 X142.008 Y102.802 E-.11086
G1 X142.461 Y102.65 E-.11034
G1 X142.832 Y102.595 E-.08655
G1 X143.3 Y102.608 E-.10808
G1 X143.759 Y102.713 E-.10881
;WIPE_END
G1 E-.04 F2100
G1 Z.6 F10800
G1 X125.179 Y131.367
G1 Z.2
G1 E.8 F2100
;TYPE:Perimeter
G1 F1200
G1 X125.459 Y131.431 E.009
G1 X125.72 Y131.549 E.00899
G1 X125.953 Y131.717 E.00898
G1 X126.147 Y131.926 E.00897
G1 X126.297 Y132.171 E.00901
G1 X126.398 Y132.448 E.00922
G1 X126.437 Y132.757 E.00978
G1 X126.433 Y138.933 E.19364
G1 X126.393 Y139.159 E.0072
G1 X126.3 Y139.414 E.00853
G1 X126.185 Y139.613 E.00721
G1 X126.005 Y139.827 E.00876
G1 X125.781 Y140.006 E.00899
G1 X125.533 Y140.133 E.00876
G1 X125.313 Y140.201 E.00721
G1 X125.036 Y140.236 E.00875
G1 X124.75 Y140.214 E.00899
G1 X124.473 Y140.137 E.00901
G1 X124.218 Y140.006 E.00899
G1 X123.994 Y139.827 E.00899
G1 X123.81 Y139.607 E.00899
G1 X123.673 Y139.355 E.00899
G1 X123.589 Y139.083 E.00895
G1 X123.563 Y138.828 E.00802
G1 X123.567 Y132.652 E.19364
G1 X123.622 Y132.379 E.00875
G1 X123.704 Y132.172 E.00698
G1 X123.815 Y131.979 E.00698
G1 X123.995 Y131.765 E.00876
G1 X124.213 Y131.591 E.00876
G1 X124.415 Y131.481 E.00721
G1 X124.673 Y131.394 E.00853
G1 X124.9 Y131.36 E.00721
G1 X125.119 Y131.366 E.00686
G1 X124.924 Y131.738 F10800
;TYPE:External perimeter
G1 F1200
G1 X125.132 Y131.743 E.00653
G1 X125.338 Y131.79 E.00663
G1 X125.531 Y131.877 E.00662
G1 X125.702 Y132.001 E.00662
G1 X125.845 Y132.155 E.0066
G1 X125.956 Y132.336 E.00664
G1 X126.029 Y132.537 E.00671
G1 X126.06 Y132.781 E.0077
G1 X126.056 Y138.9 E.19186
G1 X126.027 Y139.061 E.00513
G1 X125.957 Y139.254 E.00646
G1 X125.875 Y139.396 E.00514
G1 X125.741 Y139.556 E.00654
G1 X125.576 Y139.688 E.00662
G1 X125.39 Y139.783 E.00654
G1 X125.233 Y139.831 E.00514
G1 X125.026 Y139.857 E.00654
G1 X124.816 Y139.841 E.00662
G1 X124.612 Y139.784 E.00664
G1 X124.424 Y139.687 E.00662
G1 X124.259 Y139.556 E.00662
G1 X124.123 Y139.394 E.00662
G1 X124.022 Y139.208 E.00663
G1 X123.96 Y139.007 E.0066
G1 X123.94 Y138.809 E.00624
G1 X123.944 Y132.69 E.19186
G1 X123.986 Y132.486 E.00653
G1 X124.044 Y132.336 E.00506
G1 X124.125 Y132.196 E.00505
G1 X124.259 Y132.036 E.00655
G1 X124.422 Y131.906 E.00654
G1 X124.567 Y131.828 E.00514
G1 X124.864 Y131.747 E.00968
G1 X125.011 Y131.549 F10800
;WIPE_START
G1 F8640
G1 X125.132 Y131.743 E-.06178
G1 X125.338 Y131.79 E-.04884
G1 X125.531 Y131.877 E-.04878
G1 X125.702 Y132.001 E-.04875
G1 X125.845 Y132.155 E-.04864
G1 X125.956 Y132.336 E-.04891
G1 X126.029 Y132.537 E-.04941
G1 X126.06 Y132.781 E-.05673
G1 X126.059 Y134.288 E-.34814
;WIPE_END
G1 E-.04 F2100
G1 Z.6 F10800
G1 X176.557 Y196.537
G1 Z.2
G1 E.8 F2100
;TYPE:Perimeter
G1 F1200
G1 X73.443 Y196.537 E3.23304
G1 X73.525 Y193.221 E.104
G1 X73.711 Y190.698 E.07931
G1 X74.021 Y188.188 E.07931
G1 X74.453 Y185.696 E.07931
G1 X75.007 Y183.227 E.07931
G1 X75.682 Y180.79 E.07931
G1 X76.475 Y178.388 E.07931
G1 X77.386 Y176.028 E.07931
G1 X78.411 Y173.715 E.07931
G1 X79.548 Y171.455 E.07932
G1 X80.795 Y169.255 E.07931
G1 X82.148 Y167.117 E.07931
G1 X83.605 Y165.049 E.07931
G1 X85.161 Y163.055 E.07932
G1 X86.813 Y161.14 E.07931
G1 X88.558 Y159.308 E.07931
G1 X90.39 Y157.563 E.07931
G1 X92.305 Y155.911 E.07931
G1 X94.299 Y154.355 E.07932
G1 X96.367 Y152.898 E.07931
G1 X98.505 Y151.545 E.07931
G1 X100.705 Y150.298 E.07931
G1 X102.965 Y149.161 E.07932
G1 X105.278 Y148.136 E.07931
G1 X107.638 Y147.225 E.07931
G1 X110.04 Y146.432 E.07931
G1 X112.477 Y145.757 E.07931
G1 X114.946 Y145.203 E.07931
G1 X117.438 Y144.771 E.07931
G1 X119.948 Y144.461 E.07931
G1 X122.471 Y144.275 E.07931
G1 X124.895 Y144.215 E.07602
G1 X127.528 Y144.275 E.08259
G1 X130.052 Y144.461 E.07933
G1 X132.562 Y144.771 E.07931
G1 X135.054 Y145.203 E.07931
G1 X137.523 Y145.757 E.07931
G1 X139.96 Y146.432 E.07931
G1 X142.362 Y147.225 E.07932
G1 X144.722 Y148.136 E.07931
G1 X147.035 Y149.161 E.07931
G1 X149.295 Y150.298 E.07931
G1 X151.495 Y151.545 E.07931
G1 X153.633 Y152.898 E.07931
G1 X155.701 Y154.355 E.07931
G1 X157.695 Y155.911 E.07932
G1 X159.61 Y157.563 E.07931
G1 X161.442 Y159.308 E.07931
G1 X163.187 Y161.14 E.07931
G1 X164.839 Y163.055 E.07931
G1 X166.395 Y165.049 E.07932
G1 X167.852 Y167.117 E.07931
G1 X169.205 Y169.255 E.07931
G1 X170.452 Y171.455 E.07931
G1 X171.589 Y173.715 E.07931
G1 X172.614 Y176.028 E.07931
G1 X173.525 Y178.388 E.07931
G1 X174.318 Y180.79 E.07931
G1 X174.993 Y183.227 E.07931
G1 X175.547 Y185.696 E.07931
G1 X175.979 Y188.188 E.07931
G1 X176.289 Y190.698 E.07931
G1 X176.475 Y193.221 E.07931
G1 X176.555 Y196.477 E.10212
G1 X176.17 Y196.16 F10800
;TYPE:External perimeter
G1 F1200
G1 X73.83 Y196.16 E3.20881
G1 X73.901 Y193.24 E.09159
G1 X74.086 Y190.735 E.07873
G1 X74.394 Y188.243 E.07873
G1 X74.823 Y185.769 E.07873
G1 X75.373 Y183.319 E.07873
G1 X76.043 Y180.899 E.07873
G1 X76.83 Y178.515 E.07873
G1 X77.734 Y176.172 E.07873
G1 X78.752 Y173.876 E.07873
G1 X79.881 Y171.633 E.07873
G1 X81.119 Y169.448 E.07873
G1 X82.462 Y167.327 E.07873
G1 X83.908 Y165.274 E.07873
G1 X85.453 Y163.294 E.07874
G1 X87.093 Y161.393 E.07873
G1 X88.824 Y159.574 E.07873
G1 X90.643 Y157.843 E.07873
G1 X92.544 Y156.203 E.07873
G1 X94.524 Y154.658 E.07874
G1 X96.577 Y153.212 E.07873
G1 X98.698 Y151.869 E.07873
G1 X100.883 Y150.631 E.07873
G1 X103.126 Y149.502 E.07873
G1 X105.422 Y148.484 E.07873
G1 X107.765 Y147.58 E.07873
G1 X110.149 Y146.793 E.07873
G1 X112.569 Y146.123 E.07873
G1 X115.019 Y145.573 E.07873
G1 X117.493 Y145.144 E.07873
G1 X119.985 Y144.836 E.07873
G1 X122.49 Y144.651 E.07873
G1 X124.895 Y144.592 E.07545
G1 X127.51 Y144.651 E.08201
G1 X130.015 Y144.836 E.07874
G1 X132.507 Y145.144 E.07873
G1 X134.981 Y145.573 E.07873
G1 X137.431 Y146.123 E.07873
G1 X139.851 Y146.793 E.07873
G1 X142.235 Y147.58 E.07873
M73 P1 R72
G1 X144.578 Y148.484 E.07873
G1 X146.874 Y149.502 E.07873
G1 X149.117 Y150.631 E.07873
G1 X151.302 Y151.869 E.07873
G1 X153.423 Y153.212 E.07873
G1 X155.476 Y154.658 E.07873
G1 X157.456 Y156.203 E.07873
G1 X159.357 Y157.843 E.07873
G1 X161.176 Y159.574 E.07873
G1 X162.907 Y161.393 E.07873
G1 X164.547 Y163.294 E.07873
G1 X166.092 Y165.274 E.07873
G1 X167.538 Y167.327 E.07873
G1 X168.881 Y169.448 E.07873
G1 X170.119 Y171.633 E.07873
G1 X171.248 Y173.876 E.07873
G1 X172.266 Y176.172 E.07873
G1 X173.17 Y178.515 E.07873
G1 X173.957 Y180.899 E.07873
G1 X174.627 Y183.319 E.07873
G1 X175.177 Y185.769 E.07873
G1 X175.606 Y188.243 E.07873
G1 X175.914 Y190.735 E.07873
G1 X176.099 Y193.24 E.07873
G1 X176.169 Y196.1 E.08971
G1 X176.176 Y196.56 F10800
;WIPE_START
G1 F8640
G1 X172.877 Y196.102 E-.76
;WIPE_END
G1 E-.04 F2100
G1 Z.6 F10800
G1 X108.767 Y107.155
G1 Z.2
G1 E.8 F2100
;TYPE:Perimeter
G1 F1200
G1 X108.273 Y107.483 E.01858
G1 X107.756 Y107.686 E.01742
G1 X107.209 Y107.782 E.01742
G1 X106.653 Y107.768 E.01742
G1 X106.111 Y107.645 E.01743
G1 X105.605 Y107.416 E.01741
G1 X105.154 Y107.092 E.01742
G1 X104.776 Y106.684 E.01743
G1 X104.486 Y106.21 E.01742
G1 X104.296 Y105.688 E.01742
G1 X104.213 Y105.139 E.01741
G1 X104.241 Y104.584 E.01743
G1 X104.378 Y104.046 E.01742
G1 X104.619 Y103.545 E.01742
G1 X104.955 Y103.102 E.01742
G1 X105.372 Y102.734 E.01743
G1 X105.852 Y102.457 E.0174
G1 X106.363 Y102.284 E.01691
G1 X106.809 Y102.217 E.01412
G1 X107.348 Y102.232 E.01691
G1 X107.889 Y102.355 E.01741
G1 X108.395 Y102.584 E.01742
G1 X108.846 Y102.908 E.01742
G1 X109.224 Y103.316 E.01742
G1 X109.514 Y103.79 E.01742
G1 X109.704 Y104.311 E.01741
G1 X109.785 Y104.844 E.01689
G1 X109.775 Y105.284 E.01381
G1 X109.666 Y105.822 E.01722
G1 X109.45 Y106.335 E.01742
G1 X109.137 Y106.793 E.01741
G1 X108.81 Y107.113 E.01436
G1 X108.503 Y106.885 F10800
;TYPE:External perimeter
G1 F1200
G1 X108.1 Y107.146 E.01506
G1 X107.653 Y107.321 E.01505
G1 X107.18 Y107.404 E.01505
G1 X106.7 Y107.392 E.01506
G1 X106.232 Y107.285 E.01506
G1 X105.794 Y107.088 E.01505
G1 X105.405 Y106.808 E.01506
G1 X105.078 Y106.456 E.01506
G1 X104.828 Y106.046 E.01505
G1 X104.663 Y105.595 E.01506
G1 X104.592 Y105.12 E.01505
G1 X104.616 Y104.64 E.01506
G1 X104.734 Y104.175 E.01505
G1 X104.943 Y103.743 E.01506
G1 X105.233 Y103.36 E.01505
G1 X105.593 Y103.042 E.01506
G1 X106.008 Y102.802 E.01505
G1 X106.452 Y102.652 E.01469
G1 X106.832 Y102.595 E.01203
G1 X107.3 Y102.608 E.01469
G1 X107.768 Y102.715 E.01505
G1 X108.206 Y102.912 E.01505
G1 X108.596 Y103.192 E.01506
G1 X108.922 Y103.544 E.01505
G1 X109.172 Y103.954 E.01505
